icons/1_Primary/Splashtop.svg

<svg width="1024" height="1024" fill="none" xmlns="http://www.w3.org/2000/svg"><g clip-path="url(#a)"><path d="M512 1024c282.77 0 512-229.23 512-512S794.77 0 512 0 0 229.23 0 512s229.23 512 512 512Z" fill="#728DBE"/><path d="M671.19 516.71s-.31-1.22-.76-3.35c-5.17-23.54-10.18-76.41 23.85-99.2 33.72-22.48 67 3.79 72 17.78 7.29 20.21-9.26 29.47-38.28 37.22-45.72 12.16-56.06 41.63-56.81 47.55Zm9.87 36.61c-68.05-33.12-60.61-88-69.12-115.45C563.65 268.49 467.18 256.34 456.08 256c-26.73-.76-73.83 11.39-77.33 65.31-5 76.72 102.84 71.7 142.64 102.84 27.19 21.26 46.18 68.51-3.94 58.18-60.61-22.64-131.55-16.1-160.88-3.79-49.68 20.82-67.15 47.86-72.16 53.47-5.01 5.61-66.38 91.3 8.51 161.78 58.94 55.44 139 16.25 170.6-28 19-26.43 32.36-52.57 47.25-75.65 58.63-71.86 129.12-24.76 147.5 8.51 28.4 51 48.3 76.72 73.83 59.55 25.53-16.93 22.03-69.33-51.03-104.88h-.01Z" fill="#fff"/></g><defs><clipPath id="a"><path fill="#fff" d="M0 0h1024v1024H0z"/></clipPath></defs></svg>

<svg width="1024" height="1024" viewBox="0 0 1024 1024" fill="none" xmlns="http://www.w3.org/2000/svg">
<g clip-path="url(#clip0_2_3528)">
<path d="M512 1024C794.77 1024 1024 794.77 1024 512C1024 229.23 794.77 0 512 0C229.23 0 0 229.23 0 512C0 794.77 229.23 1024 512 1024Z" fill="#728DBE"/>
<path d="M671.19 516.71C671.19 516.71 670.88 515.49 670.43 513.36C665.26 489.82 660.25 436.95 694.28 414.16C728 391.68 761.28 417.95 766.28 431.94C773.57 452.15 757.02 461.41 728 469.16C682.28 481.32 671.94 510.79 671.19 516.71ZM681.06 553.32C613.01 520.2 620.45 465.32 611.94 437.87C563.65 268.49 467.18 256.34 456.08 256C429.35 255.24 382.25 267.39 378.75 321.31C373.75 398.03 481.59 393.01 521.39 424.15C548.58 445.41 567.57 492.66 517.45 482.33C456.84 459.69 385.9 466.23 356.57 478.54C306.89 499.36 289.42 526.4 284.41 532.01C279.4 537.62 218.03 623.31 292.92 693.79C351.86 749.23 431.92 710.04 463.52 665.79C482.52 639.36 495.88 613.22 510.77 590.14C569.4 518.28 639.89 565.38 658.27 598.65C686.67 649.65 706.57 675.37 732.1 658.2C757.63 641.27 754.13 588.87 681.07 553.32H681.06Z" fill="white"/>
</g>
<defs>
<clipPath id="clip0_2_3528">
<rect width="1024" height="1024" fill="white"/>
</clipPath>
</defs>
</svg>
